symbols/web/houseboat/materialsymbolsrounded/houseboat_wght600gradN25fill1_40px.svg

<svg xmlns="http://www.w3.org/2000/svg" height="40" width="40"><path d="M14.375 32.25q-1.75 0-2.937-.812-1.188-.813-2.73-.813-.875 0-1.75.375l-1.75.75q-.791.292-1.437-.146-.646-.437-.646-1.354 0-.458.333-.896.334-.437.959-.646.958-.25 1.916-.791.959-.542 2.334-.542 1.791 0 3 .833 1.208.834 2.666.834 1.5 0 2.729-.834 1.23-.833 2.938-.833 1.792 0 2.979.833 1.188.834 2.729.834 1.459 0 2.646-.834 1.188-.833 2.979-.833 1.375 0 2.334.5.958.5 2 .833.541.209.875.584.333.375.333.958 0 .917-.646 1.375-.646.458-1.396.083-.875-.333-1.771-.729-.895-.396-1.77-.396-1.5 0-2.709.834-1.208.833-2.916.833-1.709 0-2.917-.833-1.208-.834-2.75-.834-1.5 0-2.708.834-1.209.833-2.917.833Zm-4.958-7.417q-1 0-1.917-.354t-1.583-1.062l-.834-.834q-.5-.458-.5-1.125 0-.666.5-1.166.5-.5 1.146-.48.646.021 1.146.48l.792.791q.25.292.583.396.333.104.667.104h2.333v-6.625l-1.167.834q-.5.458-1.187.312-.688-.146-1.063-.687-.458-.5-.333-1.167t.667-1.083l10.291-7.5q.209-.209.5-.292.292-.083.542-.083.25 0 .542.083.291.083.5.292l10.291 7.5q.542.416.646 1.062.104.646-.271 1.188-.375.625-1.062.708-.688.083-1.229-.333l-1.125-.834v6.625h2.291q.375 0 .688-.104.312-.104.562-.396l.834-.791q.5-.5 1.145-.48.646.021 1.146.48.459.5.459 1.146 0 .645-.459 1.145l-.833.834q-.75.708-1.646 1.062-.896.354-1.896.354Zm9-3.25h3.208v-3.791h-3.208Z"/></svg>

<svg xmlns="http://www.w3.org/2000/svg" height="40" width="40"><path d="M14.375 32.25Q12.625 32.25 11.438 31.438Q10.25 30.625 8.708 30.625Q7.833 30.625 6.958 31Q6.083 31.375 5.208 31.75Q4.417 32.042 3.771 31.604Q3.125 31.167 3.125 30.25Q3.125 29.792 3.458 29.354Q3.792 28.917 4.417 28.708Q5.375 28.458 6.333 27.917Q7.292 27.375 8.667 27.375Q10.458 27.375 11.667 28.208Q12.875 29.042 14.333 29.042Q15.833 29.042 17.062 28.208Q18.292 27.375 20 27.375Q21.792 27.375 22.979 28.208Q24.167 29.042 25.708 29.042Q27.167 29.042 28.354 28.208Q29.542 27.375 31.333 27.375Q32.708 27.375 33.667 27.875Q34.625 28.375 35.667 28.708Q36.208 28.917 36.542 29.292Q36.875 29.667 36.875 30.25Q36.875 31.167 36.229 31.625Q35.583 32.083 34.833 31.708Q33.958 31.375 33.062 30.979Q32.167 30.583 31.292 30.583Q29.792 30.583 28.583 31.417Q27.375 32.25 25.667 32.25Q23.958 32.25 22.75 31.417Q21.542 30.583 20 30.583Q18.5 30.583 17.292 31.417Q16.083 32.25 14.375 32.25ZM9.417 24.833Q8.417 24.833 7.5 24.479Q6.583 24.125 5.917 23.417L5.083 22.583Q4.583 22.125 4.583 21.458Q4.583 20.792 5.083 20.292Q5.583 19.792 6.229 19.812Q6.875 19.833 7.375 20.292L8.167 21.083Q8.417 21.375 8.75 21.479Q9.083 21.583 9.417 21.583H11.75V14.958L10.583 15.792Q10.083 16.25 9.396 16.104Q8.708 15.958 8.333 15.417Q7.875 14.917 8 14.25Q8.125 13.583 8.667 13.167L18.958 5.667Q19.167 5.458 19.458 5.375Q19.75 5.292 20 5.292Q20.25 5.292 20.542 5.375Q20.833 5.458 21.042 5.667L31.333 13.167Q31.875 13.583 31.979 14.229Q32.083 14.875 31.708 15.417Q31.333 16.042 30.646 16.125Q29.958 16.208 29.417 15.792L28.292 14.958V21.583H30.583Q30.958 21.583 31.271 21.479Q31.583 21.375 31.833 21.083L32.667 20.292Q33.167 19.792 33.812 19.812Q34.458 19.833 34.958 20.292Q35.417 20.792 35.417 21.438Q35.417 22.083 34.958 22.583L34.125 23.417Q33.375 24.125 32.479 24.479Q31.583 24.833 30.583 24.833ZM18.417 21.583H21.625V17.792H18.417Z"/></svg>
